X:1
T:Title
L:1/8
M:6/8
I:linebreak $
K:G
V:1 treble nm="Voice"
V:1
"D" FAG FED |"G" B2 G GAB |"C" c2 A FED |"G" (d3 d)AG |"D" FAG FED |"G" B2 G GAB | %6
"C" c2 A"D" FED |1"G" G3- GAG :|2"G" G3- G2 d |:"G" BGG BdB |"C" cBc"G" Bfg | dBB BAG | %12
"D" FAG FED |"G" B2 G BdB |"C" cBc"G" Bfg | edB"C" cAF |1"G" G3 Ged :|2"G" G3 GAG |] %18
